CRM-system/src/assets/Edit.svg

<svg width="24" height="24" viewBox="0 0 24 24" fill="none" xmlns="http://www.w3.org/2000/svg">
<path d="M4.5 16.55V19.0833C4.5 19.3166 4.68333 19.5 4.91667 19.5H7.45C7.55833 19.5 7.66667 19.4583 7.74167 19.375L16.8417 10.2833L13.7167 7.15829L4.625 16.25C4.54167 16.3333 4.5 16.4333 4.5 16.55ZM19.2583 7.86663C19.3356 7.78953 19.3969 7.69796 19.4387 7.59715C19.4805 7.49634 19.502 7.38827 19.502 7.27913C19.502 7.16999 19.4805 7.06192 19.4387 6.96111C19.3969 6.8603 19.3356 6.76872 19.2583 6.69163L17.3083 4.74163C17.2312 4.66438 17.1397 4.60309 17.0389 4.56127C16.938 4.51945 16.83 4.49792 16.7208 4.49792C16.6117 4.49792 16.5036 4.51945 16.4028 4.56127C16.302 4.60309 16.2104 4.66438 16.1333 4.74163L14.6083 6.26663L17.7333 9.39163L19.2583 7.86663Z" fill="#999999"/>
</svg>

<svg xmlns="http://www.w3.org/2000/svg" width="24" height="24" fill="none"><path fill="#999" d="M4.5 16.55v2.533c0 .234.183.417.417.417H7.45a.391.391 0 0 0 .292-.125l9.1-9.092-3.125-3.125-9.092 9.092a.41.41 0 0 0-.125.3Zm14.758-8.683a.83.83 0 0 0 0-1.175l-1.95-1.95a.83.83 0 0 0-1.175 0l-1.525 1.525 3.125 3.125 1.525-1.525Z"/></svg>
